X:196
T:Redesdale Hornpipe
M:4/4
L:1/8
K:G
(3def | g>d B>d G2 (3def | g>d B>d G2 A>B | 
c>A F>A D>F A>c | e>d ^c>d B2 de/2f/2 | 
g>d B>d G2 (3def | g>d B>g G2 A>B | 
c>A F>A D>F A>B | A2 G2 G2 :| 
G>A | B>G F>G D>G F>G | B>G F>G D2 A>B | 
c>A F>A D>F A>c | e>d ^c>d B2 G>A | 
B>G F>G D>G F>G | B>G F>G D2 A>B | 
c>A F>A D>F A>B | A2 G2 G2 :| 

